X:0577
T:Water parted from the Sea.
M:3/4
L:1/8
Q:1/4=112
I: || ::
Z:Jack Campin * www.campin.me.uk * 2009
K:G
G4      A2    | B2  c2 B2   |    A2     G2     F2       |    G/F/G/A/ G2   z2 |\
B4      c2    | d2  e2 d2   |    d>e    c2     B2       |{c} B2       A2   z2 |
G4      A2    | B2  c2 B2   |    e2     d2 {ef}g2       |    g2      (fe)(Tdc)|\
B>A c>B e>d   | f>g c2 B2   | {B}A2     G2     F>G      |    G4            z2||
d4      e>^c  | d4     e>^c |    d2     A2     B2       |    A2      TG2   F2 |\
A4      A2    | A4     A2   |    B2     e2     d2       |   (d2      ^c2)  z2 |
d4      e2    | f2  g2 f2   |    e2     d2    ^c2       |    d2       g2   f2 |\
B2 (e3   f/g/)| A2  d3  e/f/|    f>e    e>d    d>^c     |{c}Hd4            z2 |
G4      A2    | B2  c2 B2   |    A2     G2     F2       |    G/F/G/A/ G2   z2 |\
B4      c2    | d2  e2 d2   |    d>e    c2     B2       |    B2       A2   z2 |
d3    g fe    | e2  dc BA   |    G2     A>B    B3/A//B//|    c4            z2 |\
B>A c>B e>d   |Tf4     g2   |({f}e){d}c B2    TA2       |    G4            z2:|

